!!!OTL: Chang qi chage tiao chadeng
!!!ARE: Asia, China,ÿJiangxi, Shangrao
!! IV, 251
!!!SCT: C1686
!!!YEM: Copyright 1995, estate of Helmut Schaffrath.
**kern
*ICvox
*Ivox
*M2/4
*k[f#]
*G:
{4a
4b
=1
4a
4b
=2
8a
8b
8e
8g
=3
8.b
16dd
8a
8g}
=4
{8e
4e
8g
=5
8a
8b
8a
8g
=6
8e
8a
16g
16a
16g
16e
=7
2d}
=8
{8g
4d
8e
=9
8g
16e
16g
4a
=10
4b
8e
8g
=11
8.b
16dd
8a
8g}
=12
{8e
4e
8g
=13
8.a
16b
8a
8g
=14
8e
8a
16g
16a
16g
16e
=15
2d}
=16
{8g
4e
8g
=17
8.b
16dd
8a
8g}
=18
{8e
4e
8g
=19
8.a
16b
8a
8g
=20
8e
8a
16g
16a
16g
16e
=21
2d}
==
!!!AGN: Wuge, Dengge
!!!AMT: simple duple
!!!AIN: vox
!!!EED: Helmut Schaffrath
!!!EEV: 1.0
*-
